X:0379
T:The Savage Dance with Variations.
M:C|
L:1/8
Q:1/2=100
I: :: :: :: ::
Z:Jack Campin * www.campin.me.uk * 2009
K:G
G3d  BdGB             |A2D2 G/A/B/A/ GD|G3d  BdGB       |A2D2 G4 :|
B3c  dBGg             |e2ce dBAG       |B3c  dBGg       |e2ce d2D2|
G3d  BdGB             |A2D2 G/A/B/c/ GD|G3d  BdGB       |A2D2 G4 :|
P:Variations
GDGd B/c/d/B/ GB      |A2D2 G/A/B/A/ GD|GDGd B/c/d/B/ GB|A2D2 G4 :|
BGcA dBGg             |ecBc dBAG       |BGcA dBGg       |e2ce dDEF|
GDGd Bd       G/A/B/G/|A2D2 G/A/B/A/ GD|GDGd B/c/d/B/ GB|A2D2 G4 :|

